X:1
T:Puis que ainsi
T:Puis que ainsi
T:Philip van Wilder
C:Philip van Wilder
%%score [ 1 [ 2 3 ] 4 ]
L:1/8
Q:1/4=100
M:2/2
K:F
V:1 treble nm="Superius" snm="S"
V:2 treble-8 nm="Tenor 1" snm="T 1"
V:3 treble-8 nm="Tenor 2" snm="T 2"
V:4 bass nm="Bassus" snm="B"
V:1
 G4 G2 G2 | d6 d2 | c4 A4 | B6 AG | A4 z2 A2- | A2 c4 BA | BG B4 AG | F2 D3 EFG | AB c2 B2 A2- | %9
w: Puis- qu'ain- si|est que|je suis|es- con- *|dit, puis|_ qu'ain- si _|est _ que- je _|suis es- * * *||
"^#" A2 G4 F2 | G8 | z8 | z8 | z2 G2 G2 G2 | F2 D2 E2 F2 | G2 B4 AG | A2 F2 G2 A2 | D4 z4 | %18
w: * * con-|duit,|||Là où pen-|sois a- voir bon|cre- * * *||dit,|
 z2 d2 d2 d2 | c2 A2 B2 c2 | d6 c2 | B2 c2 A4 | G3 F E4 | D4 z4 | z2 G2 G2 A2 | B2 G2 B2 c2 | %26
w: là où pen-|sois a- voir bon|cre- *|||dit,|con- traint suis|pren- dre pa- ci-|
 d3 c B4 | A4 z4 | z8 | z2 G2 G2 F2 | B4 A3 G | F2 G2 E2 F2- | FE D4 C2 | D8- | D8- | D8 | %36
w: en _ _|ce,||j'a- vois en|el- * *|* * le grand|_ _ fi- an-|ce,|_||
 z4 z2 A2 |: B4 d4 | c4 z2 A2 | B4 d4 | c2 c2 f3 e | dcBA G2 A2- | AG G4 F2 |1 G4 z2 A2 :|2 %44
w: mais|j'ay per-|du, mais|j'ay per-|du tout mon _|_ _ _ _ _ _|* * * cre-|dit, mais|
 AG G4 F2 || G8 |] %46
w: (mon)- * * cre-|dit.|
V:2
 z8 | d4 d2 d2 | a6 a2 | g4 d4 | f6 ed | e4 f4 | d2 G2 B2 c2 | d3 e f2 d2 | c2 A2 d2 e2 | c4 d4 | %10
w: |Puis qu'ain- si|est que|je suis|es- * *|||||* con-|
w: ||||||||||
 d8 | z2 d2 d2 d2 | c4 A4 | B4 c4 | d3 c/B/ A4 | G4 z4 | z8 | z2 g2 g2 g2 | f4 d4 | e2 f2 g2 e2 | %20
w: duit,|là où pen-|sois a-|voir bon|cre- * * *|dit,||là où pen-|sois a-|voir bon cre- *|
w: ||||||||||
 d2 f3 g a2- | a2 g4 f2 | g4 z4 | z2 d2 d2 e2 | f2 d2 e2 f2 | g3 f e4 | d8 | z2 d2 d2 c2 | %28
w: ||dit,|con- traint suis|pren- dre pa- ci-|en- * *|ce,|j'a- vois en|
w: ||||||||
 f3 e/d/ e4 | d4 z2 d2 | d2 B2 c2 d2- | d2 G2 c3 B | A2 B2 G4 | A4 z2 G2 | G2 F2 Bcde | %35
w: el- * * *|le, j'a-|vois en el- le|_ grand fi- *|* * an-|ce, j'a-|vois en el- * * *|
w: |||||||
 f2 de fg a2- |"^#" ag g4 f2 |: g4 z2 d2 | e4 f4 | g4 z2 d2 | e2 a2 a3 g | f2 g2 d2 f2 | %42
w: le grand _ _ _ con-|* fi- an- *|ce, mais|j'ay per-|du, mais|j'ai per- du- _|_ tout mon _|
w: ||2.dit, *|||||
 d2 c2 d3 c |1 BG g4 f2 :|2 d2 c2 d4 || d8 |] %46
w: _ _ _ _|* * * cre-|(mon)- * cre-|dit.|
w: ||||
V:3
 z8 | z8 | z8 | G4 G2 G2 | d6 d2 | c4 F2 F2 | B4 z2 G2 | A2 B4 A2- | A2 F2 B2 c2- | cBAG A4 | %10
w: |||Puis qu'ain- si|est que|suis- es- con-|duit, que|je suis es-||* * * * con-|
w: ||||||||||
 G4 z2 B2 | B2 B2 A2 F2 | G2 A2 F2 D2 | G6 G2 | A3 B c2 c2 | d4 z2 d2 | d2 d2 c2 A2 | B4 c4 | %18
w: duit, là|où pen- sois a-|voir bon cre- *|dit, [a-|voir _ bon cre-|dit;] là|où pen- sois a-|voir bon|
w: ||||||||
 d3 c BA B2 | A2 D2 G2 A2 | B3 A F4 | G4 z4 | z2 G2 G2 A2 | B3 B A2 G2 | A2 B2 c2 A2 | G4 z4 | %26
w: cre- * * * *|||dit,|con- traint suis|pren- dre pa- ci-|en- * * *|ce,|
w: ||||||||
 z2 D2 D2 E2 | F3 F G2 A2 | D2 d4 c2- | c2 B2 A4 | z2 G2 G2 F2 | B4 A3 G | F2 G2 E2 E2 | D4 G4 | %34
w: con- traint suis|pren- dre pa- ci-|en- * *|* * ce,|j'a- vois en|el- * *|* le grand fi-|an- *|
w: ||||||||
 D4 z2 B2 | A2 B2 A2 d2- | d2 cB A4 |: G4 z2 G2 | c4 d4 | G4 z2 G2 | c2 c2 d2 f2- | fedc B2 c2 | %42
w: ce, en-|el- le grand fi-|* * * an-|ce, mais|j'ay per-|du, mais|j'ay per- du tout|_ _ _ _ _ mon|
w: |||2.dit, *|||||
 B2 AG A2 d2- |1 dB c2 A4 :|2 B2 AG A4 || G8 |] %46
w: cre- * * * *||cre- * * *|dit.|
w: ||||
V:4
 z8 | z8 | z8 | z8 | D,4 D,2 D,2 | A,6 A,2 |"^b" G,3 F, E,2 E,2 |"^b" D,2 B,,3 C,D,E, | %8
w: ||||Puis qu'ain- si|est que|je _ _ suis|es- * * * *|
 F,G,A,F, G,2 C,2 | E,4 D,4 | G,,4 z2 G,2 | G,2 G,2 F,2 D,2 | E,2 F,3 G,A,F, | G,F,E,D, E,4 | %14
w: |* con-|duit, là|où pen- sois a-|voir bon _ _ _|_ _ _ _ cre-|
 D,4 z4 | z2 G,2 G,2 G,2 | F,2 D,2 E,2 F,2 | G,3 F, E,D, E,2 | D,4 z4 | z8 | z8 | z2 C,2 C,2 D,2 | %22
w: dit,|là où pen-|sois a- voir bon|cre- * * * *|dit,|||là- où pen-|
 E,2 C,2 E,2 F,2 | G,4 F,2 E,2 | D,2 G,2 E,2 D,2 | z2 G,,2 G,,2 A,,2 | B,,2 G,,2 B,,2 C,2 | %27
w: sois a- voir bon|cre- * *|* * * dit,|con- traint suis|pren- dre pa- *|
 D,2 D,2 E,2 F,2- | F,E, F,2 G,2 A,2 | F,2 G,2 D,4 | G,4 z4 | z8 | z4 z2 G,2 | G,2 F,2 B,4 | %34
w: ce- en- * *|||ce,||j'a-|vois en el-|
 A,4 G,4 | D,4 D,3 E, | F,2 G,2 D,4 |: z2 G,2 B,4 | A,4 D,4 |"^#" z2 G,2 B,2 B,2 | %40
w: le grand|fi- an- *|* * ce,|mais j'ay|per- du,|mais j'ay per-|
 A,3 G, F,E, D,2- | D,2 G,4 F,2 |"^b" G,2 E,2 D,4 |1 G,2 C,2 D,4 :|2 G,2 E,2 D,4 || G,,8 |] %46
w: * * * * du|_ tout mon|cre- * *|* * dit,|cre- * *|dit.|

